public/w3gpt-logo-beta.svg

<svg xmlns="http://www.w3.org/2000/svg" width="362" height="59" viewBox="0 0 362 59" fill="none"><path d="m124.608 27.128 5.856 13.392-.864.096 5.472-13.488h4.368L130.32 48.2l-6.384-13.632-5.808 13.632-9.216-21.072h4.368l6.192 14.016-1.536-.288 4.416-10.272-1.584-3.456zm36.712-11.712L152.872 29l-2.784-1.296a4.8 4.8 0 0 1 1.392-.48 8.3 8.3 0 0 1 1.536-.144 10.4 10.4 0 0 1 3.456.384 8.3 8.3 0 0 1 3.024 1.584q1.344 1.104 2.112 2.928.816 1.824.816 4.512 0 3.36-1.536 5.808a10.56 10.56 0 0 1-4.08 3.792q-2.496 1.296-5.568 1.296-2.304 0-4.608-.912-2.256-.96-3.744-2.496l2.352-3.84q.912 1.056 2.496 1.92 1.632.864 3.36.864 1.824 0 3.264-.816a6.03 6.03 0 0 0 2.352-2.304q.912-1.536.912-3.552 0-2.784-1.632-4.368-1.584-1.584-4.368-1.584-1.392 0-2.352.24-.96.192-1.728.48l-.144-.192 7.44-11.568 1.44.624h-11.568v-4.464zm17.589 41.424q-2.208 0-3.888-.528a11.2 11.2 0 0 1-3.072-1.392 22 22 0 0 1-2.592-2.064l2.592-3.024q1.584 1.488 3.216 2.304t3.648.816q2.256 0 3.792-.768 1.584-.72 2.4-2.064.816-1.296.816-3.024l.048-5.376.384.864q-.864 2.064-3.12 3.504-2.256 1.392-5.472 1.392a9.57 9.57 0 0 1-5.04-1.392q-2.256-1.392-3.648-3.744-1.344-2.4-1.344-5.376 0-3.12 1.44-5.472 1.44-2.4 3.792-3.792t5.136-1.392q2.64 0 4.8 1.104 2.208 1.056 3.216 2.736l-.24.816.48-3.84h4.08v20.016q0 2.688-1.392 4.896t-3.936 3.504-6.096 1.296m-6.816-19.968q0 1.92.912 3.504a6.8 6.8 0 0 0 2.448 2.496q1.584.912 3.504.912 1.776 0 3.168-.624 1.44-.672 2.4-1.776a6.7 6.7 0 0 0 1.344-2.64v-3.936a6.1 6.1 0 0 0-1.44-2.496 6.7 6.7 0 0 0-2.4-1.68q-1.392-.624-3.072-.624-1.92 0-3.504.864-1.536.864-2.448 2.448-.912 1.536-.912 3.552m37.663 10.608q-2.256 0-4.368-1.056-2.064-1.056-3.216-2.832l.288-1.392v14.352h-4.416V26.84h3.84l.624 5.088-.48-1.392q1.44-1.824 3.648-3.024t4.944-1.2q2.784 0 4.992 1.344 2.256 1.344 3.552 3.744t1.296 5.616-1.392 5.568a9.6 9.6 0 0 1-3.84 3.648q-2.4 1.248-5.472 1.248m-.864-3.552q1.92 0 3.504-.864a7.06 7.06 0 0 0 2.592-2.448q.96-1.584.96-3.552 0-2.016-.912-3.552a6.8 6.8 0 0 0-2.448-2.496q-1.488-.912-3.36-.912-1.728 0-3.12.672a6.3 6.3 0 0 0-2.304 1.872q-.912 1.152-1.296 2.688v3.312a6 6 0 0 0 1.152 2.736q.912 1.2 2.256 1.872 1.392.672 2.976.672m19.525-25.536h4.464v8.832h5.472v3.504h-5.472V47h-4.464V30.728h-3.648v-3.504h3.648zm13.074 26.064q0-1.056.768-1.776.816-.768 1.776-.768.864 0 1.632.768.816.72.816 1.776 0 1.152-.816 1.872-.768.672-1.632.672-.96 0-1.776-.672-.768-.72-.768-1.872m18.575 3.024q-2.784 0-5.088-1.2-2.256-1.2-3.6-3.504-1.296-2.352-1.296-5.712 0-3.312 1.392-5.712 1.392-2.448 3.696-3.744 2.352-1.296 5.136-1.296t4.704 1.296q1.92 1.248 2.928 2.976l-.288.768.432-4.224h4.128V47h-4.464v-5.184l.48 1.152q-.192.48-.864 1.248-.624.72-1.728 1.488-1.056.768-2.448 1.296-1.392.48-3.12.48m1.2-3.696q1.68 0 3.024-.624a5.9 5.9 0 0 0 2.208-1.728q.912-1.152 1.248-2.736v-3.888a5.9 5.9 0 0 0-1.344-2.496 6.3 6.3 0 0 0-2.304-1.68q-1.344-.624-2.976-.624a6.4 6.4 0 0 0-3.264.864 6.64 6.64 0 0 0-2.4 2.4q-.864 1.536-.864 3.6 0 1.92.912 3.504a6.8 6.8 0 0 0 2.448 2.496 6.4 6.4 0 0 0 3.312.912m18.669-16.656h4.464V47h-4.464zm-.336-7.2q0-1.056.816-1.776.864-.72 1.872-.72t1.776.72q.816.72.816 1.776 0 1.104-.816 1.824a2.62 2.62 0 0 1-1.776.672q-1.008 0-1.872-.72-.816-.72-.816-1.776m13.483 23.184h19.44V47h-19.44zm31.911-25.902q-1.197 0-2.121-.525a4.4 4.4 0 0 1-1.449-1.323l.231-.609V17h-1.953V.746h1.932v9.555l-.063-.735q.525-.714 1.491-1.155.987-.462 2.184-.462 1.176 0 2.142.567t1.533 1.596q.588 1.008.588 2.415 0 1.47-.63 2.52a4.23 4.23 0 0 1-1.638 1.617 4.7 4.7 0 0 1-2.247.546m-.399-1.659q.84 0 1.512-.399a2.86 2.86 0 0 0 1.05-1.071q.378-.693.378-1.575 0-.84-.399-1.512a2.8 2.8 0 0 0-1.05-1.092 2.8 2.8 0 0 0-1.491-.399q-.714 0-1.323.273a2.9 2.9 0 0 0-1.029.756q-.42.462-.588 1.092v1.743q.168.63.567 1.134.399.483 1.008.777.609.273 1.365.273m11.587 1.659q-1.491 0-2.562-.588a4.34 4.34 0 0 1-1.659-1.638q-.567-1.05-.567-2.394 0-1.281.651-2.331a4.9 4.9 0 0 1 1.743-1.68q1.092-.63 2.436-.63 1.722 0 2.856 1.008t1.533 2.772l-7.161 2.52-.462-1.155 5.88-2.142-.42.273a2.84 2.84 0 0 0-.84-1.197q-.588-.525-1.533-.525-.798 0-1.428.399-.63.378-.987 1.05t-.357 1.533q0 .903.378 1.596.378.672 1.029 1.071a3.03 3.03 0 0 0 1.512.378q.567 0 1.092-.21.546-.21 1.008-.546l.903 1.449a6 6 0 0 1-1.47.714 4.9 4.9 0 0 1-1.575.273m7.718-12.726h1.953v3.864h2.394v1.533h-2.394V17h-1.953V9.881h-1.596V8.348h1.596zm10.319 12.726a4.75 4.75 0 0 1-2.226-.525 3.95 3.95 0 0 1-1.575-1.533q-.567-1.029-.567-2.499 0-1.449.609-2.499.609-1.071 1.617-1.638a4.6 4.6 0 0 1 2.247-.567q1.218 0 2.058.567.84.546 1.281 1.302l-.126.336.189-1.848h1.806V17h-1.953v-2.268l.21.504q-.084.21-.378.546-.273.315-.756.651a4.6 4.6 0 0 1-1.071.567 4.2 4.2 0 0 1-1.365.21m.525-1.617q.735 0 1.323-.273t.966-.756a2.85 2.85 0 0 0 .546-1.197v-1.701a2.6 2.6 0 0 0-.588-1.092 2.76 2.76 0 0 0-1.008-.735 3.05 3.05 0 0 0-1.302-.273q-.777 0-1.428.378a2.9 2.9 0 0 0-1.05 1.05q-.378.672-.378 1.575a3.02 3.02 0 0 0 1.47 2.625 2.8 2.8 0 0 0 1.449.399M0 15h36v8H0zm36 16h32v8H36zM20 47h32v8H20zm28-32h36v8H48z" fill="#21DA03"/></svg>

<svg xmlns="http://www.w3.org/2000/svg" width="362" height="59" viewBox="0 0 362 59" fill="none">
    <path
        d="M124.608 27.128L130.464 40.52L129.6 40.616L135.072 27.128H139.44L130.32 48.2L123.936 34.568L118.128 48.2L108.912 27.128H113.28L119.472 41.144L117.936 40.856L122.352 30.584L120.768 27.128H124.608ZM161.32 15.416L152.872 29L150.088 27.704C150.504 27.48 150.968 27.32 151.48 27.224C151.992 27.128 152.504 27.08 153.016 27.08C154.2 27.016 155.352 27.144 156.472 27.464C157.592 27.784 158.6 28.312 159.496 29.048C160.392 29.784 161.096 30.76 161.608 31.976C162.152 33.192 162.424 34.696 162.424 36.488C162.424 38.728 161.912 40.664 160.888 42.296C159.864 43.928 158.504 45.192 156.808 46.088C155.144 46.952 153.288 47.384 151.24 47.384C149.704 47.384 148.168 47.08 146.632 46.472C145.128 45.832 143.88 45 142.888 43.976L145.24 40.136C145.848 40.84 146.68 41.48 147.736 42.056C148.824 42.632 149.944 42.92 151.096 42.92C152.312 42.92 153.4 42.648 154.36 42.104C155.352 41.56 156.136 40.792 156.712 39.8C157.32 38.776 157.624 37.592 157.624 36.248C157.624 34.392 157.08 32.936 155.992 31.88C154.936 30.824 153.48 30.296 151.624 30.296C150.696 30.296 149.912 30.376 149.272 30.536C148.632 30.664 148.056 30.824 147.544 31.016L147.4 30.824L154.84 19.256L156.28 19.88H144.712V15.416H161.32ZM178.909 56.84C177.437 56.84 176.141 56.664 175.021 56.312C173.901 55.992 172.877 55.528 171.949 54.92C171.053 54.312 170.189 53.624 169.357 52.856L171.949 49.832C173.005 50.824 174.077 51.592 175.165 52.136C176.253 52.68 177.469 52.952 178.813 52.952C180.317 52.952 181.581 52.696 182.605 52.184C183.661 51.704 184.461 51.016 185.005 50.12C185.549 49.256 185.821 48.248 185.821 47.096L185.869 41.72L186.253 42.584C185.677 43.96 184.637 45.128 183.133 46.088C181.629 47.016 179.805 47.48 177.661 47.48C175.837 47.48 174.157 47.016 172.621 46.088C171.117 45.16 169.901 43.912 168.973 42.344C168.077 40.744 167.629 38.952 167.629 36.968C167.629 34.888 168.109 33.064 169.069 31.496C170.029 29.896 171.293 28.632 172.861 27.704C174.429 26.776 176.141 26.312 177.997 26.312C179.757 26.312 181.357 26.68 182.797 27.416C184.269 28.12 185.341 29.032 186.013 30.152L185.773 30.968L186.253 27.128H190.333V47.144C190.333 48.936 189.869 50.568 188.941 52.04C188.013 53.512 186.701 54.68 185.005 55.544C183.309 56.408 181.277 56.84 178.909 56.84ZM172.093 36.872C172.093 38.152 172.397 39.32 173.005 40.376C173.613 41.432 174.429 42.264 175.453 42.872C176.509 43.48 177.677 43.784 178.957 43.784C180.141 43.784 181.197 43.576 182.125 43.16C183.085 42.712 183.885 42.12 184.525 41.384C185.165 40.616 185.613 39.736 185.869 38.744V34.808C185.581 33.848 185.101 33.016 184.429 32.312C183.757 31.576 182.957 31.016 182.029 30.632C181.101 30.216 180.077 30.008 178.957 30.008C177.677 30.008 176.509 30.296 175.453 30.872C174.429 31.448 173.613 32.264 173.005 33.32C172.397 34.344 172.093 35.528 172.093 36.872ZM209.756 47.48C208.252 47.48 206.796 47.128 205.388 46.424C204.012 45.72 202.94 44.776 202.172 43.592L202.46 42.2V56.552H198.044V26.84H201.884L202.508 31.928L202.028 30.536C202.988 29.32 204.204 28.312 205.676 27.512C207.148 26.712 208.796 26.312 210.62 26.312C212.476 26.312 214.14 26.76 215.612 27.656C217.116 28.552 218.3 29.8 219.164 31.4C220.028 33 220.46 34.872 220.46 37.016C220.46 39.16 219.996 41.016 219.068 42.584C218.14 44.152 216.86 45.368 215.228 46.232C213.628 47.064 211.804 47.48 209.756 47.48ZM208.892 43.928C210.172 43.928 211.34 43.64 212.396 43.064C213.484 42.456 214.348 41.64 214.988 40.616C215.628 39.56 215.948 38.376 215.948 37.064C215.948 35.72 215.644 34.536 215.036 33.512C214.428 32.456 213.612 31.624 212.588 31.016C211.596 30.408 210.476 30.104 209.228 30.104C208.076 30.104 207.036 30.328 206.108 30.776C205.18 31.224 204.412 31.848 203.804 32.648C203.196 33.416 202.764 34.312 202.508 35.336V38.648C202.668 39.672 203.052 40.584 203.66 41.384C204.268 42.184 205.02 42.808 205.916 43.256C206.844 43.704 207.836 43.928 208.892 43.928ZM228.417 18.392H232.881V27.224H238.353V30.728H232.881V47H228.417V30.728H224.769V27.224H228.417V18.392ZM241.491 44.456C241.491 43.752 241.747 43.16 242.259 42.68C242.803 42.168 243.395 41.912 244.035 41.912C244.611 41.912 245.155 42.168 245.667 42.68C246.211 43.16 246.483 43.752 246.483 44.456C246.483 45.224 246.211 45.848 245.667 46.328C245.155 46.776 244.611 47 244.035 47C243.395 47 242.803 46.776 242.259 46.328C241.747 45.848 241.491 45.224 241.491 44.456ZM260.066 47.48C258.21 47.48 256.514 47.08 254.978 46.28C253.474 45.48 252.274 44.312 251.378 42.776C250.514 41.208 250.082 39.304 250.082 37.064C250.082 34.856 250.546 32.952 251.474 31.352C252.402 29.72 253.634 28.472 255.17 27.608C256.738 26.744 258.45 26.312 260.306 26.312C262.162 26.312 263.73 26.744 265.01 27.608C266.29 28.44 267.266 29.432 267.938 30.584L267.65 31.352L268.082 27.128H272.21V47H267.746V41.816L268.226 42.968C268.098 43.288 267.81 43.704 267.362 44.216C266.946 44.696 266.37 45.192 265.634 45.704C264.93 46.216 264.114 46.648 263.186 47C262.258 47.32 261.218 47.48 260.066 47.48ZM261.266 43.784C262.386 43.784 263.394 43.576 264.29 43.16C265.186 42.744 265.922 42.168 266.498 41.432C267.106 40.664 267.522 39.752 267.746 38.696V34.808C267.49 33.848 267.042 33.016 266.402 32.312C265.762 31.576 264.994 31.016 264.098 30.632C263.202 30.216 262.21 30.008 261.122 30.008C259.938 30.008 258.85 30.296 257.858 30.872C256.866 31.448 256.066 32.248 255.458 33.272C254.882 34.296 254.594 35.496 254.594 36.872C254.594 38.152 254.898 39.32 255.506 40.376C256.114 41.432 256.93 42.264 257.954 42.872C258.978 43.48 260.082 43.784 261.266 43.784ZM279.935 27.128H284.399V47H279.935V27.128ZM279.599 19.928C279.599 19.224 279.871 18.632 280.415 18.152C280.991 17.672 281.615 17.432 282.287 17.432C282.959 17.432 283.551 17.672 284.063 18.152C284.607 18.632 284.879 19.224 284.879 19.928C284.879 20.664 284.607 21.272 284.063 21.752C283.551 22.2 282.959 22.424 282.287 22.424C281.615 22.424 280.991 22.184 280.415 21.704C279.871 21.224 279.599 20.632 279.599 19.928ZM293.082 43.112H312.522V47H293.082V43.112Z"
        fill="#21DA03" />
    <path
        d="M324.993 17.21C324.195 17.21 323.488 17.035 322.872 16.685C322.27 16.335 321.787 15.894 321.423 15.362L321.654 14.753V17H319.701V0.745999H321.633V10.301L321.57 9.566C321.92 9.09 322.417 8.705 323.061 8.411C323.719 8.103 324.447 7.949 325.245 7.949C326.029 7.949 326.743 8.138 327.387 8.516C328.031 8.894 328.542 9.426 328.92 10.112C329.312 10.784 329.508 11.589 329.508 12.527C329.508 13.507 329.298 14.347 328.878 15.047C328.472 15.747 327.926 16.286 327.24 16.664C326.554 17.028 325.805 17.21 324.993 17.21ZM324.594 15.551C325.154 15.551 325.658 15.418 326.106 15.152C326.554 14.886 326.904 14.529 327.156 14.081C327.408 13.619 327.534 13.094 327.534 12.506C327.534 11.946 327.401 11.442 327.135 10.994C326.883 10.532 326.533 10.168 326.085 9.902C325.651 9.636 325.154 9.503 324.594 9.503C324.118 9.503 323.677 9.594 323.271 9.776C322.865 9.958 322.522 10.21 322.242 10.532C321.962 10.84 321.766 11.204 321.654 11.624V13.367C321.766 13.787 321.955 14.165 322.221 14.501C322.487 14.823 322.823 15.082 323.229 15.278C323.635 15.46 324.09 15.551 324.594 15.551ZM336.181 17.21C335.187 17.21 334.333 17.014 333.619 16.622C332.905 16.216 332.352 15.67 331.96 14.984C331.582 14.284 331.393 13.486 331.393 12.59C331.393 11.736 331.61 10.959 332.044 10.259C332.478 9.559 333.059 8.999 333.787 8.579C334.515 8.159 335.327 7.949 336.223 7.949C337.371 7.949 338.323 8.285 339.079 8.957C339.835 9.629 340.346 10.553 340.612 11.729L333.451 14.249L332.989 13.094L338.869 10.952L338.449 11.225C338.281 10.763 338.001 10.364 337.609 10.028C337.217 9.678 336.706 9.503 336.076 9.503C335.544 9.503 335.068 9.636 334.648 9.902C334.228 10.154 333.899 10.504 333.661 10.952C333.423 11.4 333.304 11.911 333.304 12.485C333.304 13.087 333.43 13.619 333.682 14.081C333.934 14.529 334.277 14.886 334.711 15.152C335.159 15.404 335.663 15.53 336.223 15.53C336.601 15.53 336.965 15.46 337.315 15.32C337.679 15.18 338.015 14.998 338.323 14.774L339.226 16.223C338.792 16.517 338.302 16.755 337.756 16.937C337.224 17.119 336.699 17.21 336.181 17.21ZM343.899 4.484H345.852V8.348H348.246V9.881H345.852V17H343.899V9.881H342.303V8.348H343.899V4.484ZM354.218 17.21C353.406 17.21 352.664 17.035 351.992 16.685C351.334 16.335 350.809 15.824 350.417 15.152C350.039 14.466 349.85 13.633 349.85 12.653C349.85 11.687 350.053 10.854 350.459 10.154C350.865 9.44 351.404 8.894 352.076 8.516C352.762 8.138 353.511 7.949 354.323 7.949C355.135 7.949 355.821 8.138 356.381 8.516C356.941 8.88 357.368 9.314 357.662 9.818L357.536 10.154L357.725 8.306H359.531V17H357.578V14.732L357.788 15.236C357.732 15.376 357.606 15.558 357.41 15.782C357.228 15.992 356.976 16.209 356.654 16.433C356.346 16.657 355.989 16.846 355.583 17C355.177 17.14 354.722 17.21 354.218 17.21ZM354.743 15.593C355.233 15.593 355.674 15.502 356.066 15.32C356.458 15.138 356.78 14.886 357.032 14.564C357.298 14.228 357.48 13.829 357.578 13.367V11.666C357.466 11.246 357.27 10.882 356.99 10.574C356.71 10.252 356.374 10.007 355.982 9.839C355.59 9.657 355.156 9.566 354.68 9.566C354.162 9.566 353.686 9.692 353.252 9.944C352.818 10.196 352.468 10.546 352.202 10.994C351.95 11.442 351.824 11.967 351.824 12.569C351.824 13.129 351.957 13.64 352.223 14.102C352.489 14.564 352.846 14.928 353.294 15.194C353.742 15.46 354.225 15.593 354.743 15.593Z"
        fill="#21DA03" />
    <rect y="15" width="36" height="8" fill="#21DA03" />
    <rect x="36" y="31" width="32" height="8" fill="#21DA03" />
    <rect x="20" y="47" width="32" height="8" fill="#21DA03" />
    <rect x="48" y="15" width="36" height="8" fill="#21DA03" />
</svg>
